X:1
T:Title
%%score { ( 1 3 ) | 2 }
L:1/8
Q:1/4=100
M:4/4
K:Ab
V:1 treble nm="Grand Piano"
V:3 treble 
V:2 bass 
V:1
 A>E C>E A2 c2 | B>=A B>c d4 | c>_c =c>d e2 [EAc]2 | [GB]>[_G=A] [=GB]>[Ac] [GB]4 | A>E C>E A2 c2 | %5
w: R.~A.~Glenn * * * * *|||||
 [Fd]>[Fd] [Fd]>[Fd] [DF]4 | [FA]>[FA] [FA]>F E>E A>c | B2 B2 [CA]4 | .[DF]2 .[DF]2 .[Fd]2 .[Fd]2 | %9
w: ||||
 [Ec]>[DB] [CA]>[DB] [Ec]2 [EA]2 | [DF]4 [FA]4 | [CA]>[CE] [EA]>[Ec] [EB]4 | %12
w: |||
 [Ec]>[=D_c] [E=c]>[EB] [EA]2 [EG]2 | [DF]>[EG] [FA]>[DF] [Fd]4 | [Ec]>[EB] [EA]>B c>c [EA]>[Fd] | %15
w: |||
 [Ec]2 [DB]2 [CA]4 |] %16
w: |
V:2
 A,>E, C,>E, A,2 [A,E]2 | [E,G,E]>[E,_G,E] [E,=G,E]>[E,A,E] [E,B,E]4 | %2
 [A,E]>[A,=D] [A,E]>[A,B,E] [A,CE]2 A,,2 | [E,E]>[E,E] [E,E]>[E,E] [E,E]4 | %4
 A,>E, C,>E, A,2 [A,E]2 | [D,A,]>[D,A,] [D,A,]>[D,A,] [D,A,]4 | %6
 [D,D]>[D,D] [D,D]>[E,A,D] [E,A,C]>[E,A,C] [E,C]>[E,A,E] | [E,G,E]2 [E,G,D]2 [A,,A,]4 | %8
 .[D,A,]2 .[D,A,]2 .[D,A,]2 .[D,A,]2 | [A,,A,]>[A,,E,] [A,,E,]>[A,,E,] [A,,A,]2 [C,A,]2 | %10
 [D,A,]2 D,2 D,2 D,2 | [A,,A,]>[A,,A,] [C,A,]>[A,,A,] [E,G,]4 | %12
 [A,,A,]>[A,,A,] [A,,A,]>[A,,G,] [C,A,]2 [C,A,]2 | [D,A,]>[D,A,] [D,A,]>[D,A,] [D,A,]4 | %14
 [E,A,]>[D,G,] [C,A,]>[E,G,E] [A,E]>[A,E] [D,A,]>[D,A,] | [E,A,]2 [E,G,]2 [A,,A,]4 |] %16
V:3
 x8 | x8 | x8 | x8 | x8 | x8 | x8 | x8 | x8 | x8 | z2 A,2 A,2 A,2 | x8 | x8 | x8 | x8 | x8 |] %16

